; generated by PrusaSlicer 2.2.0+ on 2020-05-18 at 01:47:08 UTC

; 

; external perimeters extrusion width = 0.45mm
; perimeters extrusion width = 0.45mm
; infill extrusion width = 0.45mm
; solid infill extrusion width = 0.45mm
; top infill extrusion width = 0.40mm
; first layer extrusion width = 0.42mm

M73 P0 R2
M73 Q0 S2
M201 X1000 Y1000 Z1000 E5000 ; sets maximum accelerations, mm/sec^2
M203 X200 Y200 Z12 E120 ; sets maximum feedrates, mm/sec
M204 P1250 R1250 T1250 ; sets acceleration (P, T) and retract acceleration (R), mm/sec^2
M205 X8.00 Y8.00 Z0.40 E4.50 ; sets the jerk limits, mm/sec
M205 S0 T0 ; sets the minimum extruding and travel feed rate, mm/sec
M107
M862.3 P "MK3S" ; printer model check
M862.1 P0.4 ; nozzle diameter check
M115 U3.8.1 ; tell printer latest fw version
G90 ; use absolute coordinates
M83 ; extruder relative mode
M104 S215 ; set extruder temp
M140 S60 ; set bed temp
M190 S60 ; wait for bed temp
M109 S215 ; wait for extruder temp
G28 W ; home all without mesh bed level
G80 ; mesh bed leveling
G1 Y-3.0 F1000.0 ; go outside print area
G92 E0.0
G1 X60.0 E9.0 F1000.0 ; intro line
M73 Q2 S2
M73 P2 R2
G1 X100.0 E12.5 F1000.0 ; intro line
G92 E0.0
M221 S95
G21 ; set units to millimeters
G90 ; use absolute coordinates
M83 ; use relative distances for extrusion
M900 K30 ; Filament gcode
;BEFORE_LAYER_CHANGE
G92 E0.0
;0.2


G1 E-0.80000 F2100.00000
G1 Z0.600 F10800.000
;AFTER_LAYER_CHANGE
;0.2
G1 X109.023 Y87.833
G1 Z0.200
G1 E0.80000 F2100.00000
M204 S1000
G1 F1200.000
G1 X109.942 Y87.624 E0.02954
G1 X140.004 Y87.623 E0.94257
G1 X140.885 Y87.794 E0.02813
G1 X141.637 Y88.276 E0.02802
G1 X142.159 Y89.006 E0.02813
G1 X142.374 Y89.877 E0.02813
G1 X142.377 Y120.046 E0.94592
G1 X142.203 Y120.892 E0.02708
G1 X141.742 Y121.617 E0.02696
G1 X140.956 Y122.176 E0.03024
G1 X140.009 Y122.377 E0.03036
G1 X109.950 Y122.377 E0.94245
G1 X109.108 Y122.203 E0.02696
G1 X108.383 Y121.742 E0.02696
G1 X107.822 Y120.952 E0.03036
G1 X107.623 Y120.009 E0.03024
G1 X107.623 Y89.950 E0.94245
G1 X107.797 Y89.108 E0.02696
G1 X108.258 Y88.383 E0.02696
G1 X108.974 Y87.868 E0.02766
G1 F8640.000
G1 X109.942 Y87.624 E-0.23038
G1 X112.235 Y87.624 E-0.52962
G1 E-0.04000 F2100.00000
G1 Z0.800 F10800.000
G1 X110.787 Y90.787
G1 Z0.200
G1 E0.80000 F2100.00000
G1 F1200.000
G1 X139.213 Y90.787 E0.89127
G1 X139.213 Y119.213 E0.89127
G1 X110.787 Y119.213 E0.89127
G1 X110.787 Y90.847 E0.88939
G1 X110.410 Y90.410 F10800.000
G1 F1200.000
G1 X139.590 Y90.410 E0.91492
G1 X139.590 Y119.590 E0.91492
G1 X110.410 Y119.590 E0.91492
G1 X110.410 Y90.470 E0.91304
G1 X110.796 Y90.514 F10800.000
G1 F8640.000
G1 X113.701 Y90.463 E-0.76000
G1 E-0.04000 F2100.00000
G1 Z0.800 F10800.000
G1 X139.100 Y91.669
G1 Z0.200
G1 E0.80000 F2100.00000
G1 F1200.000
G1 X138.500 Y91.070 E0.02681
G1 X137.962 Y91.070 E0.01701
G1 X138.930 Y92.038 E0.04327
G1 X138.930 Y92.575 E0.01701
G1 X137.425 Y91.070 E0.06733
G1 X136.887 Y91.070 E0.01701
G1 X138.930 Y93.113 E0.09138
G1 X138.930 Y93.651 E0.01701
G1 X136.349 Y91.070 E0.11544
G1 X135.811 Y91.070 E0.01701
G1 X138.930 Y94.189 E0.13949
G1 X138.930 Y94.727 E0.01701
G1 X135.273 Y91.070 E0.16355
G1 X134.735 Y91.070 E0.01701
G1 X138.930 Y95.265 E0.18760
G1 X138.930 Y95.802 E0.01701
G1 X134.198 Y91.070 E0.21165
G1 X133.660 Y91.070 E0.01701
G1 X138.930 Y96.340 E0.23571
G1 X138.930 Y96.878 E0.01701
G1 X133.122 Y91.070 E0.25976
G1 X132.584 Y91.070 E0.01701
G1 X138.930 Y97.416 E0.28382
G1 X138.930 Y97.954 E0.01701
G1 X132.046 Y91.070 E0.30787
G1 X131.508 Y91.070 E0.01701
G1 X138.930 Y98.492 E0.33192
G1 X138.930 Y99.030 E0.01701
G1 X130.970 Y91.070 E0.35598
G1 X130.433 Y91.070 E0.01701
G1 X138.930 Y99.567 E0.38003
G1 X138.930 Y100.105 E0.01701
G1 X129.895 Y91.070 E0.40409
G1 X129.357 Y91.070 E0.01701
G1 X138.930 Y100.643 E0.42814
G1 X138.930 Y101.181 E0.01701
G1 X128.819 Y91.070 E0.45220
G1 X128.281 Y91.070 E0.01701
G1 X138.930 Y101.719 E0.47625
G1 X138.930 Y102.257 E0.01701
G1 X127.743 Y91.070 E0.50030
G1 X127.205 Y91.070 E0.01701
G1 X138.930 Y102.795 E0.52436
G1 X138.930 Y103.332 E0.01701
G1 X126.668 Y91.070 E0.54841
G1 X126.130 Y91.070 E0.01701
G1 X138.930 Y103.870 E0.57247
G1 X138.930 Y104.408 E0.01701
G1 X125.592 Y91.070 E0.59652
G1 X125.054 Y91.070 E0.01701
G1 X138.930 Y104.946 E0.62057
G1 X138.930 Y105.484 E0.01701
G1 X124.516 Y91.070 E0.64463
G1 X123.978 Y91.070 E0.01701
G1 X138.930 Y106.022 E0.66868
G1 X138.930 Y106.560 E0.01701
G1 X123.440 Y91.070 E0.69274
G1 X122.903 Y91.070 E0.01701
G1 X138.930 Y107.097 E0.71679
G1 X138.930 Y107.635 E0.01701
G1 X122.365 Y91.070 E0.74085
G1 X121.827 Y91.070 E0.01701
G1 X138.930 Y108.173 E0.76490
G1 X138.930 Y108.711 E0.01701
G1 X121.289 Y91.070 E0.78895
G1 X120.751 Y91.070 E0.01701
G1 X138.930 Y109.249 E0.81301
G1 X138.930 Y109.787 E0.01701
G1 X120.213 Y91.070 E0.83706
G1 X119.676 Y91.070 E0.01701
G1 X138.930 Y110.324 E0.86112
G1 X138.930 Y110.862 E0.01701
G1 X119.138 Y91.070 E0.88517
G1 X118.600 Y91.070 E0.01701
G1 X138.930 Y111.400 E0.90922
G1 X138.930 Y111.938 E0.01701
G1 X118.062 Y91.070 E0.93328
G1 X117.524 Y91.070 E0.01701
G1 X138.930 Y112.476 E0.95733
G1 X138.930 Y113.014 E0.01701
G1 X116.986 Y91.070 E0.98139
G1 X116.448 Y91.070 E0.01701
G1 X138.930 Y113.552 E1.00544
G1 X138.930 Y114.089 E0.01701
G1 X115.911 Y91.070 E1.02950
M73 Q46 S1
G1 X115.373 Y91.070 E0.01701
G1 X138.930 Y114.627 E1.05355
M73 P47 R1
G1 X138.930 Y115.165 E0.01701
G1 X114.835 Y91.070 E1.07760
G1 X114.297 Y91.070 E0.01701
G1 X138.930 Y115.703 E1.10166
G1 X138.930 Y116.241 E0.01701
G1 X113.759 Y91.070 E1.12571
G1 X113.221 Y91.070 E0.01701
G1 X138.930 Y116.779 E1.14977
G1 X138.930 Y117.317 E0.01701
G1 X112.683 Y91.070 E1.17382
G1 X112.146 Y91.070 E0.01701
G1 X138.930 Y117.854 E1.19787
G1 X138.930 Y118.392 E0.01701
G1 X111.608 Y91.070 E1.22193
G1 X111.070 Y91.070 E0.01701
G1 X138.930 Y118.930 E1.24598
G1 X138.392 Y118.930 E0.01701
G1 X111.070 Y91.608 E1.22193
G1 X111.070 Y92.146 E0.01701
G1 X137.854 Y118.930 E1.19787
G1 X137.317 Y118.930 E0.01701
G1 X111.070 Y92.683 E1.17382
G1 X111.070 Y93.221 E0.01701
G1 X136.779 Y118.930 E1.14976
G1 X136.241 Y118.930 E0.01701
G1 X111.070 Y93.759 E1.12571
G1 X111.070 Y94.297 E0.01701
G1 X135.703 Y118.930 E1.10166
G1 X135.165 Y118.930 E0.01701
G1 X111.070 Y94.835 E1.07760
G1 X111.070 Y95.373 E0.01701
G1 X134.627 Y118.930 E1.05355
G1 X134.089 Y118.930 E0.01701
G1 X111.070 Y95.911 E1.02949
G1 X111.070 Y96.448 E0.01701
G1 X133.552 Y118.930 E1.00544
G1 X133.014 Y118.930 E0.01701
G1 X111.070 Y96.986 E0.98139
G1 X111.070 Y97.524 E0.01701
G1 X132.476 Y118.930 E0.95733
G1 X131.938 Y118.930 E0.01701
G1 X111.070 Y98.062 E0.93328
G1 X111.070 Y98.600 E0.01701
G1 X131.400 Y118.930 E0.90922
G1 X130.862 Y118.930 E0.01701
G1 X111.070 Y99.138 E0.88517
G1 X111.070 Y99.676 E0.01701
G1 X130.324 Y118.930 E0.86112
G1 X129.787 Y118.930 E0.01701
G1 X111.070 Y100.213 E0.83706
G1 X111.070 Y100.751 E0.01701
G1 X129.249 Y118.930 E0.81301
G1 X128.711 Y118.930 E0.01701
G1 X111.070 Y101.289 E0.78895
G1 X111.070 Y101.827 E0.01701
G1 X128.173 Y118.930 E0.76490
G1 X127.635 Y118.930 E0.01701
G1 X111.070 Y102.365 E0.74084
G1 X111.070 Y102.903 E0.01701
G1 X127.097 Y118.930 E0.71679
G1 X126.560 Y118.930 E0.01701
G1 X111.070 Y103.440 E0.69274
G1 X111.070 Y103.978 E0.01701
G1 X126.022 Y118.930 E0.66868
G1 X125.484 Y118.930 E0.01701
G1 X111.070 Y104.516 E0.64463
G1 X111.070 Y105.054 E0.01701
G1 X124.946 Y118.930 E0.62057
G1 X124.408 Y118.930 E0.01701
G1 X111.070 Y105.592 E0.59652
G1 X111.070 Y106.130 E0.01701
G1 X123.870 Y118.930 E0.57247
G1 X123.332 Y118.930 E0.01701
G1 X111.070 Y106.668 E0.54841
G1 X111.070 Y107.205 E0.01701
G1 X122.795 Y118.930 E0.52436
G1 X122.257 Y118.930 E0.01701
G1 X111.070 Y107.743 E0.50030
M73 Q89 S0
G1 X111.070 Y108.281 E0.01701
G1 X121.719 Y118.930 E0.47625
G1 X121.181 Y118.930 E0.01701
G1 X111.070 Y108.819 E0.45219
G1 X111.070 Y109.357 E0.01701
G1 X120.643 Y118.930 E0.42814
M73 P91 R0
G1 X120.105 Y118.930 E0.01701
G1 X111.070 Y109.895 E0.40409
G1 X111.070 Y110.433 E0.01701
G1 X119.567 Y118.930 E0.38003
G1 X119.030 Y118.930 E0.01701
G1 X111.070 Y110.970 E0.35598
G1 X111.070 Y111.508 E0.01701
G1 X118.492 Y118.930 E0.33192
G1 X117.954 Y118.930 E0.01701
G1 X111.070 Y112.046 E0.30787
G1 X111.070 Y112.584 E0.01701
G1 X117.416 Y118.930 E0.28382
G1 X116.878 Y118.930 E0.01701
G1 X111.070 Y113.122 E0.25976
G1 X111.070 Y113.660 E0.01701
G1 X116.340 Y118.930 E0.23571
G1 X115.802 Y118.930 E0.01701
G1 X111.070 Y114.198 E0.21165
G1 X111.070 Y114.735 E0.01701
G1 X115.265 Y118.930 E0.18760
G1 X114.727 Y118.930 E0.01701
G1 X111.070 Y115.273 E0.16354
G1 X111.070 Y115.811 E0.01701
G1 X114.189 Y118.930 E0.13949
G1 X113.651 Y118.930 E0.01701
G1 X111.070 Y116.349 E0.11544
G1 X111.070 Y116.887 E0.01701
G1 X113.113 Y118.930 E0.09138
G1 X112.575 Y118.930 E0.01701
G1 X111.070 Y117.425 E0.06733
G1 X111.070 Y117.963 E0.01701
G1 X112.037 Y118.930 E0.04327
G1 X111.500 Y118.930 E0.01701
G1 X110.900 Y118.331 E0.02681
G1 F8640.000;_WIPE
G1 X111.500 Y118.930 E-0.19575
G1 F8640.000;_WIPE
G1 X112.037 Y118.930 E-0.12419
G1 F8640.000;_WIPE
G1 X111.070 Y117.963 E-0.31597
G1 F8640.000;_WIPE
G1 X111.070 Y117.425 E-0.12409
G1 E-0.04000 F2100.00000
G1 Z0.800 F10800.000
; Filament-specific end gcode
G4 ; wait
M221 S100
M104 S0 ; turn off temperature
M140 S0 ; turn off heatbed
M107 ; turn off fan
G1 Z30.8 ; Move print head up
G1 X0 Y200 F3000 ; home X axis
M84 ; disable motors
M73 P100 R0
M73 Q100 S0
; filament used [mm] = 77.7
; filament used [cm3] = 0.2
; filament used [g] = 0.2
; filament cost = 0.0

; total filament used [g] = 0.2
; total filament cost = 0.0
; estimated printing time (normal mode) = 2m 17s
; estimated printing time (silent mode) = 2m 18s

; avoid_crossing_perimeters = 0
; bed_custom_model = 
; bed_custom_texture = 
; bed_shape = 0x0,250x0,250x210,0x210
; bed_temperature = 60
; before_layer_gcode = ;BEFORE_LAYER_CHANGE\nG92 E0.0\n;[layer_z]\n\n
; between_objects_gcode = 
; bottom_fill_pattern = rectilinear
; bottom_solid_layers = 4
; bottom_solid_min_thickness = 0.5
; bridge_acceleration = 1000
; bridge_angle = 0
; bridge_fan_speed = 100
; bridge_flow_ratio = 0.95
; bridge_speed = 30
; brim_width = 0
; clip_multipart_objects = 1
; compatible_printers_condition_cummulative = "printer_notes=~/.*PRINTER_VENDOR_PRUSA3D.*/ and printer_notes=~/.*PRINTER_MODEL_MK3.*/ and nozzle_diameter[0]==0.4";"! (printer_notes=~/.*PRINTER_VENDOR_PRUSA3D.*/ and printer_notes=~/.*PRINTER_MODEL_MK(2.5|3).*/ and single_extruder_multi_material)"
; complete_objects = 0
; cooling = 1
; cooling_tube_length = 5
; cooling_tube_retraction = 91.5
; default_acceleration = 1000
; default_filament_profile = "Prusament PLA"
; default_print_profile = 0.15mm QUALITY @MK3
; deretract_speed = 0
; disable_fan_first_layers = 1
; dont_support_bridges = 1
; draft_shield = 0
; duplicate_distance = 6
; elefant_foot_compensation = 0.2
; end_filament_gcode = "; Filament-specific end gcode"
; end_gcode = G4 ; wait\nM221 S100\nM104 S0 ; turn off temperature\nM140 S0 ; turn off heatbed\nM107 ; turn off fan\n{if layer_z < max_print_height}G1 Z{z_offset+min(layer_z+30, max_print_height)}{endif} ; Move print head up\nG1 X0 Y200 F3000 ; home X axis\nM84 ; disable motors
; ensure_vertical_shell_thickness = 1
; external_perimeter_extrusion_width = 0.45
; external_perimeter_speed = 25
; external_perimeters_first = 0
; extra_loading_move = -2
; extra_perimeters = 0
; extruder_clearance_height = 20
; extruder_clearance_radius = 45
; extruder_colour = ""
; extruder_offset = 0x0
; extrusion_axis = E
; extrusion_multiplier = 1
; extrusion_width = 0.45
; fan_always_on = 1
; fan_below_layer_time = 100
; filament_colour = #FF8000
; filament_cooling_final_speed = 3.4
; filament_cooling_initial_speed = 2.2
; filament_cooling_moves = 4
; filament_cost = 25.4
; filament_density = 1.24
; filament_diameter = 1.75
; filament_load_time = 0
; filament_loading_speed = 28
; filament_loading_speed_start = 3
; filament_max_volumetric_speed = 15
; filament_minimal_purge_on_wipe_tower = 15
; filament_notes = ""
; filament_ramming_parameters = "120 100 6.6 6.8 7.2 7.6 7.9 8.2 8.7 9.4 9.9 10.0| 0.05 6.6 0.45 6.8 0.95 7.8 1.45 8.3 1.95 9.7 2.45 10 2.95 7.6 3.45 7.6 3.95 7.6 4.45 7.6 4.95 7.6"
; filament_settings_id = "Generic PLA"
; filament_soluble = 0
; filament_toolchange_delay = 0
; filament_type = PLA
; filament_unload_time = 0
; filament_unloading_speed = 90
; filament_unloading_speed_start = 100
; filament_vendor = Generic
; fill_angle = 45
; fill_density = 15%
; fill_pattern = gyroid
; first_layer_acceleration = 1000
; first_layer_bed_temperature = 60
; first_layer_extrusion_width = 0.42
; first_layer_height = 0.2
; first_layer_speed = 20
; first_layer_temperature = 215
; gap_fill_speed = 40
; gcode_comments = 0
; gcode_flavor = marlin
; gcode_label_objects = 0
; high_current_on_filament_swap = 0
; host_type = octoprint
; infill_acceleration = 1000
; infill_every_layers = 1
; infill_extruder = 1
; infill_extrusion_width = 0.45
; infill_first = 0
; infill_only_where_needed = 0
; infill_overlap = 25%
; infill_speed = 80
; interface_shells = 0
; layer_gcode = ;AFTER_LAYER_CHANGE\n;[layer_z]
; layer_height = 0.2
; machine_max_acceleration_e = 5000,5000
; machine_max_acceleration_extruding = 1250,1250
; machine_max_acceleration_retracting = 1250,1250
; machine_max_acceleration_x = 1000,960
; machine_max_acceleration_y = 1000,960
; machine_max_acceleration_z = 1000,1000
; machine_max_feedrate_e = 120,120
; machine_max_feedrate_x = 200,100
; machine_max_feedrate_y = 200,100
; machine_max_feedrate_z = 12,12
; machine_max_jerk_e = 4.5,4.5
; machine_max_jerk_x = 8,8
; machine_max_jerk_y = 8,8
; machine_max_jerk_z = 0.4,0.4
; machine_min_extruding_rate = 0,0
; machine_min_travel_rate = 0,0
; max_fan_speed = 100
; max_layer_height = 0.25
; max_print_height = 210
; max_print_speed = 200
; max_volumetric_speed = 0
; min_fan_speed = 100
; min_layer_height = 0.07
; min_print_speed = 15
; min_skirt_length = 4
; notes = 
; nozzle_diameter = 0.4
; only_retract_when_crossing_perimeters = 0
; ooze_prevention = 0
; output_filename_format = {input_filename_base}_{layer_height}mm_{filament_type[0]}_{printer_model}_{print_time}.gcode
; overhangs = 0
; parking_pos_retraction = 92
; perimeter_acceleration = 800
; perimeter_extruder = 1
; perimeter_extrusion_width = 0.45
; perimeter_speed = 45
; perimeters = 2
; post_process = 
; print_settings_id = 0.20mm QUALITY @MK3
; printer_model = MK3S
; printer_notes = Don't remove the following keywords! These keywords are used in the "compatible printer" condition of the print and filament profiles to link the particular print and filament profiles to this printer profile.\nPRINTER_VENDOR_PRUSA3D\nPRINTER_MODEL_MK3\n
; printer_settings_id = Original Prusa i3 MK3S
; printer_technology = FFF
; printer_variant = 0.4
; printer_vendor = 
; raft_layers = 0
; remaining_times = 1
; resolution = 0
; retract_before_travel = 1
; retract_before_wipe = 0%
; retract_layer_change = 1
; retract_length = 0.8
; retract_length_toolchange = 4
; retract_lift = 0.6
; retract_lift_above = 0
; retract_lift_below = 209
; retract_restart_extra = 0
; retract_restart_extra_toolchange = 0
; retract_speed = 35
; seam_position = nearest
; serial_port = 
; serial_speed = 250000
; silent_mode = 1
; single_extruder_multi_material = 0
; single_extruder_multi_material_priming = 0
; skirt_distance = 2
; skirt_height = 3
; skirts = 1
; slice_closing_radius = 0.049
; slowdown_below_layer_time = 20
; small_perimeter_speed = 25
; solid_infill_below_area = 0
; solid_infill_every_layers = 0
; solid_infill_extruder = 1
; solid_infill_extrusion_width = 0.45
; solid_infill_speed = 80
; spiral_vase = 0
; standby_temperature_delta = -5
; start_filament_gcode = "M900 K{if printer_notes=~/.*PRINTER_MODEL_MINI.*/ and nozzle_diameter[0]==0.6}0.12{elsif printer_notes=~/.*PRINTER_MODEL_MINI.*/}0.2{elsif printer_notes=~/.*PRINTER_HAS_BOWDEN.*/}200{elsif nozzle_diameter[0]==0.6}18{else}30{endif} ; Filament gcode"
