; generated by PrusaSlicer 2.2.0+win64 on 2020-07-16 at 09:42:35 UTC

; 

; external perimeters extrusion width = 0.45mm
; perimeters extrusion width = 0.45mm
; infill extrusion width = 0.45mm
; solid infill extrusion width = 0.45mm
; top infill extrusion width = 0.40mm
; first layer extrusion width = 0.42mm

M73 P0 R30
M73 Q0 S30
M201 X1000 Y1000 Z200 E5000 ; sets maximum accelerations, mm/sec^2
M203 X200 Y200 Z12 E120 ; sets maximum feedrates, mm/sec
M204 P1250 R1250 T1250 ; sets acceleration (P, T) and retract acceleration (R), mm/sec^2
M205 X8.00 Y8.00 Z0.40 E4.50 ; sets the jerk limits, mm/sec
M205 S0 T0 ; sets the minimum extruding and travel feed rate, mm/sec
M107
M862.3 P "MK3S" ; printer model check
M862.1 P0.4 ; nozzle diameter check
M115 U3.9.0 ; tell printer latest fw version
G90 ; use absolute coordinates
M83 ; extruder relative mode
M104 S215 ; set extruder temp
M140 S60 ; set bed temp
M190 S60 ; wait for bed temp
M109 S215 ; wait for extruder temp
G28 W ; home all without mesh bed level
G80 ; mesh bed leveling
G1 Y-3.0 F1000.0 ; go outside print area
G92 E0.0
G1 X60.0 E9.0 F1000.0 ; intro line
M73 Q0 S30
M73 P0 R30
G1 X100.0 E12.5 F1000.0 ; intro line
G92 E0.0
M221 S95
G21 ; set units to millimeters
G90 ; use absolute coordinates
M83 ; use relative distances for extrusion
M900 K0.06 ; Filament gcode LA 1.5
M900 K30 ; Filament gcode LA 1.0
;BEFORE_LAYER_CHANGE
G92 E0.0
;0.2


G1 E-0.80000 F2100.00000
G1 Z0.600 F10800.000
;AFTER_LAYER_CHANGE
;0.2
G1 X6.789 Y5.535
G1 Z0.200
G1 E0.80000 F2100.00000
M204 S1000
G1 F1200.000
G1 X7.598 Y5.392 E0.02579
G1 X242.401 Y5.392 E7.36206
G1 X243.303 Y5.571 E0.02884
G1 X244.072 Y6.082 E0.02896
G1 X244.588 Y6.848 E0.02896
G1 X244.774 Y7.748 E0.02884
G1 X244.774 Y202.243 E6.09823
G1 X244.715 Y202.757 E0.01621
G1 X244.548 Y203.242 E0.01609
G1 X244.281 Y203.680 E0.01609
G1 X243.924 Y204.053 E0.01621
G1 X243.211 Y204.465 E0.02579
G1 X242.402 Y204.608 E0.02579
G1 X7.599 Y204.608 E7.36206
G1 X7.086 Y204.551 E0.01621
G1 X6.596 Y204.385 E0.01621
G1 X6.155 Y204.116 E0.01621
G1 X5.781 Y203.758 E0.01621
G1 X5.370 Y203.046 E0.02579
G1 X5.226 Y202.236 E0.02579
G1 X5.226 Y7.765 E6.09752
G1 X5.283 Y7.251 E0.01621
G1 X5.450 Y6.762 E0.01621
G1 X5.719 Y6.320 E0.01621
G1 X6.076 Y5.947 E0.01621
G1 X6.737 Y5.565 E0.02390
G1 F8640.000
G1 X7.598 Y5.392 E-0.20297
G1 X10.011 Y5.392 E-0.55703
G1 E-0.04000 F2100.00000
G1 Z0.800 F10800.000
G1 X128.160 Y119.395
G1 Z0.200
G1 E0.80000 F2100.00000
G1 F1200.000
G1 X141.110 Y119.395 E0.40604
G1 X141.110 Y107.576 E0.37058
G1 X164.820 Y107.576 E0.74342
G1 X164.820 Y117.359 E0.30673
G1 X188.246 Y117.359 E0.73450
G1 X188.246 Y107.576 E0.30673
G1 X213.184 Y107.576 E0.78191
G1 X213.184 Y119.395 E0.37058
G1 X225.185 Y119.395 E0.37628
G1 X225.185 Y173.018 E1.68132
G1 X213.184 Y173.018 E0.37628
G1 X213.184 Y185.034 E0.37674
G1 X141.110 Y185.034 E2.25984
M73 Q3 S29
M73 P3 R29
G1 X141.110 Y173.018 E0.37674
G1 X128.160 Y173.018 E0.40604
G1 X128.160 Y119.455 E1.67944
G1 X128.537 Y119.772 F10800.000
G1 F1200.000
G1 X141.487 Y119.772 E0.40604
G1 X141.487 Y107.953 E0.37058
G1 X164.443 Y107.953 E0.71978
G1 X164.443 Y117.736 E0.30673
G1 X188.623 Y117.736 E0.75815
G1 X188.623 Y107.953 E0.30673
G1 X212.807 Y107.953 E0.75826
G1 X212.807 Y119.772 E0.37058
G1 X224.808 Y119.772 E0.37628
G1 X224.808 Y172.641 E1.65767
G1 X212.807 Y172.641 E0.37628
G1 X212.807 Y184.657 E0.37674
G1 X141.487 Y184.657 E2.23619
G1 X141.487 Y172.641 E0.37674
G1 X128.537 Y172.641 E0.40604
G1 X128.537 Y119.832 E1.65579
G1 X128.505 Y119.374 F10800.000
G1 F8640.000
G1 X131.828 Y119.817 E-0.76000
G1 E-0.04000 F2100.00000
G1 Z0.800 F10800.000
G1 X141.110 Y103.150
G1 Z0.200
G1 E0.80000 F2100.00000
G1 F1200.000
G1 X141.110 Y90.969 E0.38192
G1 X128.408 Y90.969 E0.39827
G1 X128.408 Y36.982 E1.69275
G1 X141.110 Y36.982 E0.39827
G1 X141.110 Y23.820 E0.41267
G1 X213.184 Y23.820 E2.25984
G1 X213.184 Y36.982 E0.41267
G1 X225.433 Y36.982 E0.38406
G1 X225.433 Y90.969 E1.69275
G1 X213.184 Y90.969 E0.38406
G1 X213.184 Y103.150 E0.38192
G1 X188.246 Y103.150 E0.78191
G1 X188.246 Y93.933 E0.28900
G1 X164.820 Y93.933 E0.73450
G1 X164.820 Y103.150 E0.28900
G1 X141.170 Y103.150 E0.74154
G1 X141.487 Y102.773 F10800.000
G1 F1200.000
G1 X141.487 Y90.592 E0.38192
G1 X128.785 Y90.592 E0.39827
G1 X128.785 Y37.359 E1.66911
G1 X141.487 Y37.359 E0.39827
G1 X141.487 Y24.197 E0.41267
G1 X212.807 Y24.197 E2.23619
G1 X212.807 Y37.359 E0.41267
G1 X225.056 Y37.359 E0.38406
G1 X225.056 Y90.592 E1.66911
G1 X212.807 Y90.592 E0.38406
G1 X212.807 Y102.773 E0.38192
G1 X188.623 Y102.773 E0.75826
G1 X188.623 Y93.556 E0.28900
G1 X164.443 Y93.556 E0.75815
G1 X164.443 Y102.773 E0.28900
G1 X141.547 Y102.773 E0.71790
M73 Q7 S28
M73 P6 R28
G1 X141.090 Y102.824 F10800.000
G1 F8640.000
G1 X141.531 Y99.482 E-0.76000
G1 E-0.04000 F2100.00000
G1 Z0.800 F10800.000
G1 X124.982 Y90.969
G1 Z0.200
G1 E0.80000 F2100.00000
G1 F1200.000
G1 X112.684 Y90.969 E0.38559
G1 X112.684 Y103.150 E0.38192
G1 X86.128 Y103.150 E0.83262
G1 X86.128 Y93.933 E0.28900
G1 X62.703 Y93.933 E0.73450
G1 X62.703 Y103.150 E0.28900
G1 X36.816 Y103.150 E0.81165
G1 X36.816 Y90.969 E0.38192
G1 X24.337 Y90.969 E0.39127
G1 X24.337 Y36.982 E1.69275
G1 X36.816 Y36.982 E0.39127
G1 X36.816 Y23.974 E0.40785
G1 X112.684 Y23.974 E2.37878
G1 X112.684 Y36.982 E0.40785
G1 X124.982 Y36.982 E0.38559
G1 X124.982 Y90.909 E1.69087
G1 X124.605 Y90.592 F10800.000
G1 F1200.000
G1 X112.307 Y90.592 E0.38559
G1 X112.307 Y102.773 E0.38192
G1 X86.506 Y102.773 E0.80898
G1 X86.506 Y93.556 E0.28900
G1 X62.326 Y93.556 E0.75815
G1 X62.326 Y102.773 E0.28900
G1 X37.193 Y102.773 E0.78801
G1 X37.193 Y90.592 E0.38192
G1 X24.714 Y90.592 E0.39127
G1 X24.714 Y37.359 E1.66911
G1 X37.193 Y37.359 E0.39127
G1 X37.193 Y24.351 E0.40785
G1 X112.307 Y24.351 E2.35513
G1 X112.307 Y37.359 E0.40785
G1 X124.605 Y37.359 E0.38559
G1 X124.605 Y90.532 E1.66723
G1 X124.635 Y90.991 F10800.000
G1 F8640.000
G1 X121.313 Y90.548 E-0.76000
G1 E-0.04000 F2100.00000
G1 Z0.800 F10800.000
G1 X112.684 Y107.576
G1 Z0.200
G1 E0.80000 F2100.00000
G1 F1200.000
G1 X112.684 Y119.395 E0.37058
G1 X124.734 Y119.395 E0.37782
G1 X124.734 Y173.018 E1.68132
G1 X112.684 Y173.018 E0.37782
G1 X112.684 Y185.052 E0.37732
G1 X36.816 Y185.052 E2.37878
G1 X36.816 Y173.018 E0.37732
G1 X24.089 Y173.018 E0.39904
G1 X24.089 Y119.395 E1.68132
G1 X36.816 Y119.395 E0.39904
G1 X36.816 Y107.576 E0.37058
G1 X62.703 Y107.576 E0.81165
G1 X62.703 Y117.359 E0.30673
G1 X86.128 Y117.359 E0.73450
G1 X86.128 Y107.576 E0.30673
G1 X112.624 Y107.576 E0.83074
G1 X112.307 Y107.953 F10800.000
G1 F1200.000
G1 X112.307 Y119.772 E0.37058
G1 X124.357 Y119.772 E0.37782
G1 X124.357 Y172.641 E1.65767
M73 Q10 S27
M73 P10 R27
G1 X112.307 Y172.641 E0.37782
G1 X112.307 Y184.675 E0.37732
G1 X37.193 Y184.675 E2.35513
G1 X37.193 Y172.641 E0.37732
G1 X24.466 Y172.641 E0.39904
G1 X24.466 Y119.772 E1.65767
G1 X37.193 Y119.772 E0.39904
G1 X37.193 Y107.953 E0.37058
G1 X62.326 Y107.953 E0.78801
G1 X62.326 Y117.736 E0.30673
G1 X86.506 Y117.736 E0.75815
G1 X86.506 Y107.953 E0.30673
G1 X112.247 Y107.953 E0.80710
G1 X112.704 Y107.905 F10800.000
G1 F8640.000
G1 X112.263 Y111.245 E-0.76000
G1 E-0.04000 F2100.00000
G1 Z0.800 F10800.000
G1 X36.816 Y19.548
G1 Z0.200
G1 E0.80000 F2100.00000
G1 F1200.000
G1 X112.684 Y19.548 E2.37878
G1 X112.684 Y8.556 E0.34465
G1 X141.110 Y8.556 E0.89127
G1 X141.110 Y19.394 E0.33983
G1 X213.184 Y19.394 E2.25984
G1 X213.184 Y8.556 E0.33983
G1 X241.610 Y8.556 E0.89127
G1 X241.610 Y36.982 E0.89127
G1 X228.859 Y36.982 E0.39980
G1 X228.859 Y90.969 E1.69275
G1 X241.610 Y90.969 E0.39980
G1 X241.610 Y119.395 E0.89127
G1 X228.611 Y119.395 E0.40758
G1 X228.611 Y173.018 E1.68132
G1 X241.610 Y173.018 E0.40758
G1 X241.610 Y201.444 E0.89127
G1 X213.184 Y201.444 E0.89127
G1 X213.184 Y189.460 E0.37576
G1 X141.110 Y189.460 E2.25984
G1 X141.110 Y201.444 E0.37576
G1 X112.684 Y201.444 E0.89127
G1 X112.684 Y189.478 E0.37519
G1 X36.816 Y189.478 E2.37878
G1 X36.816 Y201.444 E0.37519
G1 X8.390 Y201.444 E0.89127
G1 X8.390 Y173.018 E0.89127
G1 X20.663 Y173.018 E0.38481
G1 X20.663 Y119.395 E1.68132
G1 X8.390 Y119.395 E0.38481
G1 X8.390 Y90.969 E0.89127
M73 Q13 S26
M73 P13 R26
G1 X20.911 Y90.969 E0.39259
G1 X20.911 Y36.982 E1.69275
G1 X8.390 Y36.982 E0.39259
G1 X8.390 Y8.556 E0.89127
G1 X36.816 Y8.556 E0.89127
G1 X36.816 Y19.488 E0.34277
G1 X37.193 Y19.171 F10800.000
G1 F1200.000
G1 X112.307 Y19.171 E2.35513
G1 X112.307 Y8.179 E0.34465
G1 X141.487 Y8.179 E0.91492
G1 X141.487 Y19.017 E0.33983
G1 X212.807 Y19.017 E2.23619
G1 X212.807 Y8.179 E0.33983
G1 X241.987 Y8.179 E0.91492
G1 X241.987 Y37.359 E0.91492
G1 X229.236 Y37.359 E0.39980
G1 X229.236 Y90.592 E1.66911
G1 X241.987 Y90.592 E0.39980
G1 X241.987 Y119.772 E0.91492
G1 X228.988 Y119.772 E0.40758
G1 X228.988 Y172.641 E1.65767
G1 X241.987 Y172.641 E0.40758
G1 X241.987 Y201.821 E0.91492
G1 X212.807 Y201.821 E0.91492
G1 X212.807 Y189.837 E0.37576
G1 X141.487 Y189.837 E2.23619
G1 X141.487 Y201.821 E0.37576
G1 X112.307 Y201.821 E0.91492
G1 X112.307 Y189.855 E0.37519
G1 X37.193 Y189.855 E2.35513
G1 X37.193 Y201.821 E0.37519
G1 X8.013 Y201.821 E0.91492
G1 X8.013 Y172.641 E0.91492
G1 X20.286 Y172.641 E0.38481
G1 X20.286 Y119.772 E1.65767
G1 X8.013 Y119.772 E0.38481
G1 X8.013 Y90.592 E0.91492
G1 X20.534 Y90.592 E0.39259
G1 X20.534 Y37.359 E1.66911
G1 X8.013 Y37.359 E0.39259
G1 X8.013 Y8.179 E0.91492
G1 X37.193 Y8.179 E0.91492
G1 X37.193 Y19.111 E0.34277
M73 Q17 S25
M73 P17 R25
G1 X37.350 Y19.539 F10800.000
G1 F8640.000
G1 X40.485 Y19.113 E-0.76000
G1 E-0.04000 F2100.00000
G1 Z0.800 F10800.000
G1 X40.393 Y23.861
G1 Z0.200
G1 E0.80000 F2100.00000
G1 F1200.000
G1 X25.371 Y8.838 E0.66638
G1 X24.838 Y8.838 E0.01673
G1 X39.690 Y23.691 E0.65886
G1 X39.156 Y23.691 E0.01673
G1 X24.304 Y8.838 E0.65886
G1 X23.771 Y8.838 E0.01673
G1 X38.623 Y23.691 E0.65886
G1 X38.089 Y23.691 E0.01673
G1 X23.237 Y8.838 E0.65886
G1 X22.704 Y8.838 E0.01673
G1 X37.556 Y23.691 E0.65886
G1 X37.022 Y23.691 E0.01673
G1 X22.170 Y8.838 E0.65886
G1 X21.637 Y8.838 E0.01673
G1 X36.533 Y23.735 E0.66083
G1 X36.533 Y24.269 E0.01673
G1 X21.103 Y8.838 E0.68449
G1 X20.570 Y8.838 E0.01673
G1 X36.533 Y24.802 E0.70816
G1 X36.533 Y25.336 E0.01673
G1 X20.036 Y8.838 E0.73183
G1 X19.503 Y8.838 E0.01673
G1 X36.533 Y25.869 E0.75549
G1 X36.533 Y26.403 E0.01673
G1 X18.969 Y8.838 E0.77916
G1 X18.436 Y8.838 E0.01673
G1 X36.533 Y26.936 E0.80282
G1 X36.533 Y27.470 E0.01673
G1 X17.902 Y8.838 E0.82649
G1 X17.369 Y8.838 E0.01673
G1 X36.533 Y28.003 E0.85016
G1 X36.533 Y28.537 E0.01673
G1 X16.835 Y8.838 E0.87382
G1 X16.302 Y8.838 E0.01673
G1 X36.533 Y29.070 E0.89749
G1 X36.533 Y29.604 E0.01673
G1 X15.768 Y8.838 E0.92115
G1 X15.235 Y8.838 E0.01673
G1 X36.533 Y30.137 E0.94482
G1 X36.533 Y30.671 E0.01673
G1 X14.701 Y8.838 E0.96849
G1 X14.168 Y8.838 E0.01673
G1 X36.533 Y31.204 E0.99215
G1 X36.533 Y31.738 E0.01673
G1 X13.634 Y8.838 E1.01582
G1 X13.101 Y8.838 E0.01673
G1 X36.533 Y32.271 E1.03949
G1 X36.533 Y32.805 E0.01673
G1 X12.567 Y8.838 E1.06315
G1 X12.034 Y8.838 E0.01673
G1 X36.533 Y33.338 E1.08682
G1 X36.533 Y33.872 E0.01673
G1 X11.500 Y8.838 E1.11048
G1 X10.967 Y8.838 E0.01673
G1 X36.533 Y34.405 E1.13415
G1 X36.533 Y34.939 E0.01673
G1 X10.433 Y8.838 E1.15782
G1 X9.900 Y8.838 E0.01673
G1 X36.533 Y35.472 E1.18148
G1 X36.533 Y36.006 E0.01673
G1 X9.366 Y8.838 E1.20515
G1 X8.833 Y8.838 E0.01673
G1 X36.533 Y36.539 E1.22881
G1 X36.533 Y36.699 E0.00500
G1 X36.159 Y36.699 E0.01173
G1 X8.673 Y9.212 E1.21930
G1 X8.673 Y9.746 E0.01673
G1 X35.626 Y36.699 E1.19564
G1 X35.092 Y36.699 E0.01673
G1 X8.673 Y10.279 E1.17197
G1 X8.673 Y10.813 E0.01673
G1 X34.559 Y36.699 E1.14831
G1 X34.025 Y36.699 E0.01673
G1 X8.673 Y11.346 E1.12464
G1 X8.673 Y11.880 E0.01673
G1 X33.492 Y36.699 E1.10097
G1 X32.958 Y36.699 E0.01673
G1 X8.673 Y12.413 E1.07731
G1 X8.673 Y12.947 E0.01673
G1 X32.425 Y36.699 E1.05364
M73 Q20 S24
M73 P20 R24
G1 X31.891 Y36.699 E0.01673
G1 X8.673 Y13.480 E1.02997
G1 X8.673 Y14.014 E0.01673
G1 X31.358 Y36.699 E1.00631
G1 X30.824 Y36.699 E0.01673
G1 X8.673 Y14.547 E0.98264
G1 X8.673 Y15.081 E0.01673
G1 X30.291 Y36.699 E0.95898
G1 X29.757 Y36.699 E0.01673
G1 X8.673 Y15.614 E0.93531
G1 X8.673 Y16.148 E0.01673
G1 X29.224 Y36.699 E0.91164
G1 X28.690 Y36.699 E0.01673
G1 X8.673 Y16.681 E0.88798
G1 X8.673 Y17.215 E0.01673
G1 X28.157 Y36.699 E0.86431
G1 X27.623 Y36.699 E0.01673
G1 X8.673 Y17.748 E0.84065
G1 X8.673 Y18.282 E0.01673
G1 X27.090 Y36.699 E0.81698
G1 X26.556 Y36.699 E0.01673
G1 X8.673 Y18.815 E0.79331
G1 X8.673 Y19.349 E0.01673
G1 X26.023 Y36.699 E0.76965
G1 X25.489 Y36.699 E0.01673
G1 X8.673 Y19.882 E0.74598
G1 X8.673 Y20.416 E0.01673
G1 X24.956 Y36.699 E0.72231
G1 X24.422 Y36.699 E0.01673
G1 X8.673 Y20.949 E0.69865
G1 X8.673 Y21.483 E0.01673
G1 X24.054 Y36.864 E0.68232
G1 X24.054 Y37.398 E0.01673
G1 X8.673 Y22.016 E0.68232
G1 X8.673 Y22.550 E0.01673
G1 X24.054 Y37.931 E0.68232
G1 X24.054 Y38.465 E0.01673
G1 X8.673 Y23.083 E0.68232
G1 X8.673 Y23.617 E0.01673
G1 X24.054 Y38.998 E0.68232
G1 X24.054 Y39.532 E0.01673
G1 X8.673 Y24.150 E0.68232
G1 X8.673 Y24.684 E0.01673
G1 X20.688 Y36.699 E0.53299
G1 X20.155 Y36.699 E0.01673
G1 X8.673 Y25.217 E0.50932
G1 X8.673 Y25.751 E0.01673
G1 X19.621 Y36.699 E0.48565
G1 X19.088 Y36.699 E0.01673
G1 X8.673 Y26.284 E0.46199
G1 X8.673 Y26.818 E0.01673
G1 X18.554 Y36.699 E0.43832
G1 X18.021 Y36.699 E0.01673
G1 X8.673 Y27.351 E0.41466
G1 X8.673 Y27.885 E0.01673
G1 X17.487 Y36.699 E0.39099
G1 X16.954 Y36.699 E0.01673
G1 X8.673 Y28.418 E0.36732
G1 X8.673 Y28.952 E0.01673
G1 X16.420 Y36.699 E0.34366
G1 X15.887 Y36.699 E0.01673
G1 X8.673 Y29.485 E0.31999
G1 X8.673 Y30.019 E0.01673
G1 X15.353 Y36.699 E0.29632
G1 X14.820 Y36.699 E0.01673
G1 X8.673 Y30.552 E0.27266
G1 X8.673 Y31.086 E0.01673
G1 X14.286 Y36.699 E0.24899
G1 X13.753 Y36.699 E0.01673
G1 X8.673 Y31.619 E0.22533
G1 X8.673 Y32.153 E0.01673
G1 X13.219 Y36.699 E0.20166
G1 X12.686 Y36.699 E0.01673
G1 X8.673 Y32.686 E0.17799
G1 X8.673 Y33.220 E0.01673
G1 X12.152 Y36.699 E0.15433
G1 X11.619 Y36.699 E0.01673
G1 X8.673 Y33.753 E0.13066
G1 X8.673 Y34.287 E0.01673
G1 X11.085 Y36.699 E0.10700
G1 X10.552 Y36.699 E0.01673
G1 X8.673 Y34.820 E0.08333
G1 X8.673 Y35.354 E0.01673
G1 X10.018 Y36.699 E0.05966
G1 X9.485 Y36.699 E0.01673
G1 X8.673 Y35.887 E0.03600
G1 X8.673 Y36.421 E0.01673
G1 X9.121 Y36.868 E0.01986
G1 F8640.000
G1 X8.673 Y36.421 E-0.14618
G1 X8.673 Y35.887 E-0.12319
G1 X9.485 Y36.699 E-0.26498
G1 X10.018 Y36.699 E-0.12319
G1 X9.704 Y36.385 E-0.10246
G1 E-0.04000 F2100.00000
G1 Z0.800 F10800.000
G1 X24.224 Y40.235
G1 Z0.200
G1 E0.80000 F2100.00000
G1 F1200.000
G1 X21.194 Y37.205 E0.13441
G1 X21.194 Y37.738 E0.01673
G1 X24.054 Y40.599 E0.12688
G1 X24.054 Y41.132 E0.01673
G1 X21.194 Y38.272 E0.12688
G1 X21.194 Y38.805 E0.01673
G1 X24.054 Y41.666 E0.12688
G1 X24.054 Y42.199 E0.01673
G1 X21.194 Y39.339 E0.12688
G1 X21.194 Y39.872 E0.01673
G1 X24.054 Y42.733 E0.12688
G1 X24.054 Y43.266 E0.01673
G1 X21.194 Y40.406 E0.12688
G1 X21.194 Y40.939 E0.01673
G1 X24.054 Y43.800 E0.12688
G1 X24.054 Y44.333 E0.01673
G1 X21.194 Y41.473 E0.12688
G1 X21.194 Y42.006 E0.01673
G1 X24.054 Y44.867 E0.12688
G1 X24.054 Y45.400 E0.01673
G1 X21.194 Y42.540 E0.12688
G1 X21.194 Y43.073 E0.01673
G1 X24.054 Y45.934 E0.12688
G1 X24.054 Y46.467 E0.01673
G1 X21.194 Y43.607 E0.12688
G1 X21.194 Y44.140 E0.01673
G1 X24.054 Y47.001 E0.12688
G1 X24.054 Y47.534 E0.01673
G1 X21.194 Y44.674 E0.12688
G1 X21.194 Y45.207 E0.01673
G1 X24.054 Y48.068 E0.12688
G1 X24.054 Y48.601 E0.01673
G1 X21.194 Y45.741 E0.12688
G1 X21.194 Y46.274 E0.01673
G1 X24.054 Y49.135 E0.12688
G1 X24.054 Y49.668 E0.01673
G1 X21.194 Y46.808 E0.12688
G1 X21.194 Y47.341 E0.01673
G1 X24.054 Y50.202 E0.12688
G1 X24.054 Y50.735 E0.01673
G1 X21.194 Y47.875 E0.12688
G1 X21.194 Y48.408 E0.01673
G1 X24.054 Y51.269 E0.12688
G1 X24.054 Y51.802 E0.01673
G1 X21.194 Y48.942 E0.12688
G1 X21.194 Y49.475 E0.01673
G1 X24.054 Y52.336 E0.12688
G1 X24.054 Y52.869 E0.01673
G1 X21.194 Y50.009 E0.12688
G1 X21.194 Y50.542 E0.01673
G1 X24.054 Y53.403 E0.12688
G1 X24.054 Y53.936 E0.01673
G1 X21.194 Y51.076 E0.12688
G1 X21.194 Y51.609 E0.01673
